build/svg/cmd/32/deletecell.svg

<?xml version="1.0" encoding="UTF-8" standalone="no"?>
<svg
   xmlns:dc="http://purl.org/dc/elements/1.1/"
   xmlns:cc="http://creativecommons.org/ns#"
   xmlns:rdf="http://www.w3.org/1999/02/22-rdf-syntax-ns#"
   xmlns:svg="http://www.w3.org/2000/svg"
   xmlns="http://www.w3.org/2000/svg"
   xmlns:sodipodi="http://sodipodi.sourceforge.net/DTD/sodipodi-0.dtd"
   xmlns:inkscape="http://www.inkscape.org/namespaces/inkscape"
   viewBox="0 0 32 32"
   version="1.1"
   id="svg6"
   sodipodi:docname="deletecell.svg"
   inkscape:version="0.92.5 (2060ec1f9f, 2020-04-08)"
   inkscape:export-filename="/home/jupiter007/Libreoffice yaru theme fullcolor/build/cmd/32/deletecell.png"
   inkscape:export-xdpi="95"
   inkscape:export-ydpi="95">
  <metadata
     id="metadata12">
    <rdf:RDF>
      <cc:Work
         rdf:about="">
        <dc:format>image/svg+xml</dc:format>
        <dc:type
           rdf:resource="http://purl.org/dc/dcmitype/StillImage" />
      </cc:Work>
    </rdf:RDF>
  </metadata>
  <defs
     id="defs10" />
  <sodipodi:namedview
     pagecolor="#ffffff"
     bordercolor="#666666"
     borderopacity="1"
     objecttolerance="10"
     gridtolerance="10"
     guidetolerance="10"
     inkscape:pageopacity="0"
     inkscape:pageshadow="2"
     inkscape:window-width="1920"
     inkscape:window-height="1011"
     id="namedview8"
     showgrid="true"
     inkscape:zoom="20.85965"
     inkscape:cx="15.781175"
     inkscape:cy="11.419037"
     inkscape:window-x="1920"
     inkscape:window-y="32"
     inkscape:window-maximized="1"
     inkscape:current-layer="svg6">
    <inkscape:grid
       type="xygrid"
       id="grid822" />
  </sodipodi:namedview>
  <rect
     style="opacity:1;fill:#ffffff;fill-opacity:1;fill-rule:evenodd;stroke:none;stroke-width:2;stroke-linecap:butt;stroke-linejoin:round;stroke-miterlimit:4;stroke-dasharray:none;stroke-opacity:1"
     id="rect822"
     width="22"
     height="22"
     x="5"
     y="5" />
  <path
     d="m 4,6 v 20 c 0,2 1,2 3,2 h 18 c 2,0 3,0 3,-2 V 6 C 28,4 27,4 25,4 H 7 C 5,4 4,4 4,6 Z M 5,6 C 5,5 6,5 7,5 h 5 V 7 H 5 Z m 8,-1 h 6 v 2 h -6 z m 7,0 h 5 c 1,0 2,0 2,1 V 7 H 20 Z M 5,8 h 7 v 3 H 5 Z m 8,0 h 6 v 3 1 3 1 3 1 3 h -6 v -3 -1 -3 -1 -3 -1 z m 7,0 h 7 v 3 H 20 Z M 5,12 h 7 v 3 H 5 Z m 15,0 h 7 v 3 H 20 Z M 5,16 h 7 v 3 H 5 Z m 15,0 h 7 v 3 H 20 Z M 5,20 h 7 v 3 H 5 Z m 15,0 h 7 v 3 H 20 Z M 5,24 h 7 v 3 H 7 C 6,27 5,27 5,26 Z m 8,0 h 6 v 3 h -6 z m 7,0 h 7 v 2 c 0,1 -1,1 -2,1 h -5 z"
     id="path2"
     inkscape:connector-curvature="0"
     style="fill:#6d6d6d;fill-opacity:1"
     sodipodi:nodetypes="ccccccccccccccccccccccccccccccccccccccccccccccccccccccccccccccccccccccccccccccccccccccccccaccccccccc" />
  <path
     d="m12 11v1 2 1 4 1h1 2.732422 1.535156 2.732422v-1-7-1h-1.564453-1.537109-3.13086zm1 1h2.732422l-2.333984 2-.398438.341797v-.341797zm4.267578 0h1.732422v1.199219l-.935547.800781-1.166015 1-3.898438 3.341797v-2.683594l.324219-.277344.445312-.380859 1.166016-1zm1.732422 2.515625v2.683594l-2.101562 1.800781h-3.128907l4.666016-4zm0 4v.484375h-.564453z"
     fill="#c7162b"
     id="path4" />
  <circle
     style="opacity:1;vector-effect:none;fill:#c7162b;fill-opacity:1;stroke:none;stroke-width:4.49999952;stroke-linecap:butt;stroke-linejoin:round;stroke-miterlimit:4;stroke-dasharray:none;stroke-dashoffset:0;stroke-opacity:1"
     id="path2644"
     cy="26.5"
     cx="26.5"
     r="4.5" />
  <path
     inkscape:connector-curvature="0"
     id="path1063"
     overflow="visible"
     font-weight="400"
     style="color:#000000;font-weight:400;line-height:normal;font-family:sans-serif;text-indent:0;text-align:start;text-decoration:none;text-decoration-line:none;text-decoration-style:solid;text-decoration-color:#000000;text-transform:none;white-space:normal;overflow:visible;isolation:auto;mix-blend-mode:normal;fill:#ffffff;fill-opacity:1;marker:none"
     d="M 27.914213,24.37868 26.5,25.792894 25.085786,24.378679 24.378679,25.085786 25.792893,26.5 24.37868,27.914214 25.085786,28.621321 26.5,27.207107 27.914213,28.621321 28.62132,27.914214 27.207107,26.5 28.62132,25.085787 Z" />
</svg>

<svg xmlns="http://www.w3.org/2000/svg" viewBox="0 0 32 32"><path fill="#fff" fill-rule="evenodd" d="M5 5h22v22H5z"/><path d="M4 6v20c0 2 1 2 3 2h18c2 0 3 0 3-2V6c0-2-1-2-3-2H7C5 4 4 4 4 6zm1 0c0-1 1-1 2-1h5v2H5zm8-1h6v2h-6zm7 0h5c1 0 2 0 2 1v1h-7zM5 8h7v3H5zm8 0h6v15h-6V11zm7 0h7v3h-7zM5 12h7v3H5zm15 0h7v3h-7zM5 16h7v3H5zm15 0h7v3h-7zM5 20h7v3H5zm15 0h7v3h-7zM5 24h7v3H7c-1 0-2 0-2-1zm8 0h6v3h-6zm7 0h7v2c0 1-1 1-2 1h-5z" fill="#6d6d6d"/><path d="M12 11v9h8v-9h-6.232zm1 1h2.732l-2.334 2-.398.342V14zm4.268 0H19v1.2l-.936.8-1.166 1L13 18.342v-2.684l.324-.277.446-.381 1.166-1zM19 14.516v2.683L16.898 19H13.77l4.666-4zm0 4V19h-.564z" fill="#c7162b"/><circle cy="26.5" cx="26.5" r="4.5" fill="#c7162b"/><path overflow="visible" font-weight="400" style="line-height:normal;text-indent:0;text-align:start;text-decoration-line:none;text-decoration-style:solid;text-decoration-color:#000;text-transform:none;white-space:normal;isolation:auto;mix-blend-mode:normal;marker:none" d="M27.914 24.379L26.5 25.793l-1.414-1.414-.707.707 1.414 1.414-1.414 1.414.707.707 1.414-1.414 1.414 1.414.707-.707-1.414-1.414 1.414-1.414z" color="#000" font-family="sans-serif" fill="#fff"/></svg>
